X:1200
T:Clean Pea Strae
T:Pea Strae
B:Kerr's Merry Melodies Book 1
Z:Nigel Gatherer
N:Transposed to G for comparison
M:4/4
L:1/8
K:G
D2|G2 B2 cABG|ADDE =F2 ED|GABG cABG|AcBA G2:|
Bc|dBGB dBGB|ADDE =F2 Bc|dBGB dBGB|AcBA GABc|
dBGB dBGB|ADDE =F2 Bc|dBcA BGAF|DcBA GFED|]
